dist/img/eye-regular.svg

<svg xmlns="http://www.w3.org/2000/svg" viewBox="0 0 576 512"><!--! Font Awesome Pro 6.1.2 by @fontawesome - https://fontawesome.com License - https://fontawesome.com/license (Commercial License) Copyright 2022 Fonticons, Inc.--><path d="M160 256c0-70.7 57.3-128 128-128s128 57.3 128 128-57.3 128-128 128-128-57.3-128-128zm128 80c44.2 0 80-35.8 80-80s-35.8-80-80-80h-2.9c2.2 5.1 2.9 10.5 2.9 16 0 35.3-28.7 64-64 64-5.5 0-10.9-.7-16-2.9v2c0 45.1 35.8 80.9 80 80.9zM95.42 112.6C142.5 68.84 207.2 32 288 32c80.8 0 145.5 36.84 192.6 80.6 46.8 43.4 78.1 94.5 92.9 131.1 3.3 7.9 3.3 16.7 0 24.6-14.8 35.7-46.1 86.8-92.9 131.1C433.5 443.2 368.8 480 288 480s-145.5-36.8-192.58-80.6C48.62 355.1 17.34 304 2.461 268.3a31.967 31.967 0 010-24.6C17.34 207.1 48.62 156 95.42 112.6zM288 80c-65.2 0-118.8 29.6-159.9 67.7-38.5 35.8-65.08 77.4-78.66 108.3 13.58 30 40.16 72.5 78.66 108.3C169.2 402.4 222.8 432 288 432s118.8-29.6 159.9-67.7c38.5-35.8 64.2-78.3 78.7-108.3-14.5-30.9-40.2-72.5-78.7-108.3C406.8 109.6 353.2 80 288 80z"/></svg>

<svg xmlns="http://www.w3.org/2000/svg" viewBox="0 0 576 512"><!--! Font Awesome Pro 6.1.2 by @fontawesome - https://fontawesome.com License - https://fontawesome.com/license (Commercial License) Copyright 2022 Fonticons, Inc. --><path d="M160 256C160 185.3 217.3 128 288 128C358.7 128 416 185.3 416 256C416 326.7 358.7 384 288 384C217.3 384 160 326.7 160 256zM288 336C332.2 336 368 300.2 368 256C368 211.8 332.2 176 288 176C287.3 176 286.7 176 285.1 176C287.3 181.1 288 186.5 288 192C288 227.3 259.3 256 224 256C218.5 256 213.1 255.3 208 253.1C208 254.7 208 255.3 208 255.1C208 300.2 243.8 336 288 336L288 336zM95.42 112.6C142.5 68.84 207.2 32 288 32C368.8 32 433.5 68.84 480.6 112.6C527.4 156 558.7 207.1 573.5 243.7C576.8 251.6 576.8 260.4 573.5 268.3C558.7 304 527.4 355.1 480.6 399.4C433.5 443.2 368.8 480 288 480C207.2 480 142.5 443.2 95.42 399.4C48.62 355.1 17.34 304 2.461 268.3C-.8205 260.4-.8205 251.6 2.461 243.7C17.34 207.1 48.62 156 95.42 112.6V112.6zM288 80C222.8 80 169.2 109.6 128.1 147.7C89.6 183.5 63.02 225.1 49.44 256C63.02 286 89.6 328.5 128.1 364.3C169.2 402.4 222.8 432 288 432C353.2 432 406.8 402.4 447.9 364.3C486.4 328.5 512.1 286 526.6 256C512.1 225.1 486.4 183.5 447.9 147.7C406.8 109.6 353.2 80 288 80V80z"/></svg>
